app/core/images/logos/logomark.svg

<?xml version="1.0" encoding="UTF-8"?>
<svg width="44px" height="44px" viewBox="0 0 44 44" version="1.1" xmlns="http://www.w3.org/2000/svg" xmlns:xlink="http://www.w3.org/1999/xlink">
    <!-- Generator: Sketch 46.2 (44496) - http://www.bohemiancoding.com/sketch -->
    <title>logomark</title>
    <desc>Created with Sketch.</desc>
    <defs></defs>
    <g id="Symbols" stroke="none" stroke-width="1" fill="none" fill-rule="evenodd">
        <g id="logotype">
            <g id="logomark">
                <g>
                    <path d="M2.3675387,9.75110752 L22.3637632,17.8560143 L41.6646663,9.78303199 L21.8867882,1.86149669 L2.3675387,9.75110752 Z" id="Rectangle-3" stroke="#629D1F" stroke-width="3.402"></path>
                    <path d="M21.7403082,17.8883712 C21.6483289,17.9254117 21.5880815,18.0146228 21.5880815,18.1137802 L21.5880815,41.8143921 C21.5880815,41.8456783 21.5941232,41.8766701 21.6058746,41.9056655 C21.6562835,42.0300438 21.7979765,42.0900079 21.9223549,42.039599 L41.9379382,33.9275499 C42.0296528,33.8903792 42.0896648,33.8013038 42.0896648,33.7023429 L42.0896648,10.0534032 C42.0896648,10.0222984 42.083693,9.9914829 42.0720737,9.96262985 C42.021941,9.83813991 41.8803814,9.77786149 41.7558914,9.82799421 L21.7403082,17.8883712 Z" id="Rectangle-4" stroke="#629D1F" stroke-width="3.402"></path>
                    <path d="M2.83272348,8.28653626 L22.4386892,16.1741832 L22.4386892,16.1741832 C23.1748489,16.4703465 23.6571179,17.1842016 23.6571179,17.9777026 L23.6571179,41.9281622 L23.6571179,41.9281622 C23.6571179,43.0018038 22.7867595,43.8721622 21.7131179,43.8721622 C21.4599703,43.8721622 21.2092596,43.8227193 20.9750657,43.7266101 L1.36909999,35.6806572 L1.36909999,35.6806572 C0.639551805,35.3812631 0.163152251,34.6708013 0.163152251,33.8822093 L0.163152251,10.0900557 L0.163152251,10.0900557 C0.163152251,9.01641415 1.0335107,8.1460557 2.10715225,8.1460557 C2.35576717,8.1460557 2.60207438,8.19374416 2.83272348,8.28653626 Z" id="Rectangle-2" fill="#629D1F"></path>
                </g>
            </g>
        </g>
    </g>
</svg>

<svg width="44" height="44" xmlns="http://www.w3.org/2000/svg"><g fill="none" fill-rule="evenodd"><path d="M2.368 9.751l19.996 8.105 19.3-8.073-19.777-7.922-19.52 7.89z" stroke="#629D1F" stroke-width="3.402"/><path d="M21.74 17.888a.243.243 0 0 0-.152.226v23.7a.243.243 0 0 0 .334.226l20.016-8.112a.243.243 0 0 0 .152-.226V10.053a.243.243 0 0 0-.334-.225l-20.016 8.06z" stroke="#629D1F" stroke-width="3.402"/><path d="M2.833 8.287l19.606 7.887a1.944 1.944 0 0 1 1.218 1.804v23.95a1.944 1.944 0 0 1-2.682 1.799L1.37 35.68a1.944 1.944 0 0 1-1.206-1.799V10.09a1.944 1.944 0 0 1 2.67-1.803z" fill="#629D1F"/></g></svg>
